!!!COM: Martinů, Bohuslav (Jan)
!!!OTL: Études rhythmiques (Rhythmic Studies) for Violin and Piano
!!!OMV: I: Allegro
!!!example: 496
!!!work: Mau-28
**kern	**kern	**dynam	**kern	**dynam
*part2	*part2	*part2	*part1	*part1
*staff3	*staff2	*	*staff1	*
*I"Piano	*	*	*I"Violin	*
*I'Pno.	*	*	*I'Vln.	*
*clefF4	*clefG2	*	*clefG2	*
*k[]	*k[]	*	*k[]	*
*C:	*C:	*	*C:	*
*M2/4	*M2/4	*	*M2/4	*
=1	=	=	=	=
8GG'	8r	mf	8r	.
8r	8B-X' 8e-X	.	16gLL	f
.	.	.	16gJJ	.
8r	8A' 8d	.	16gLL	.
.	.	.	16f#X	.
8DD'	8r	.	16g	.
.	.	.	16aJJ	.
=2	=2	=2	=2	=2
8GG'	8r	.	8b-XL	<
8r	8B-X' 8e-X	.	8ccJ	.
8r	8A' 8d	.	8ddL	[
8DD'	8r	.	16ccL	.
.	.	.	16ddJJ	.
=3	=3	=3	=3	=3
8GG	8r	.	8b-XL	.
8r	8B-X 8e-X	.	8aJ	.
8r	8A 8d	.	8dL	.
8DD	8r	.	16gL	.
.	.	.	16gJJ	.
=4	=4	=4	=4	=4
8GG	8r	.	16gLL	.
.	.	.	16f#X	.
8r	8B-X 8e-X	.	16g	.
.	.	.	16aJJ	.
8r	8A 8d	.	8b-XL	.
8DD	8r	.	16ccL	<
.	.	.	16aJJ	.
=5	=5	=5	=5	=5
8GG	8r	.	16ddLL	.
.	.	.	16b-X	.
8r	8B-X 8e-X	.	16cc	[
.	.	.	16dJJ	.
8r	8A 8d	.	8b-XL	.
8DD	8r	.	(8cJ 8d	.
=6	=6	=6	=6	=6
8GG	8r	.	8aL)	.
8r	8B-X 8e-X	.	16gL	.
.	.	.	16dJJ	.
8r	8A 8d	.	8e-XL	.
8DD	8r	.	16dL	.
.	.	.	16GJJ	.
=7	=7	=7	=7	=7
!!linebreak:original
8GG	8r	.	16gLL	.
.	.	.	16e-X	.
8r	8B-X 8e-X	.	16b-X	.
.	.	.	16dJJ	.
8r	8A 8d	.	16ddLL	<
.	.	.	16aJ	.
8AA	8r	.	8aaJ	.
=8	=8	=8	=8	=8
8D	8r	.	16ggLL	[
.	.	.	16gg	.
8r	8d 8f	.	16gg	.
.	.	.	16aaJJ	.
8r	8B-X 8en	.	16ffLL	.
.	.	.	16aa	.
8AA	8r	.	16ee	.
.	.	.	16aaJJ	.
=9	=9	=9	=9	=9
8D	8r	.	8ddL	.
8r	8d 8f	.	(8dJ	.
8r	8B-X 8e	.	16b-X'LL) 16bb-X	.
.	.	.	16b-J 16bb-	.
8AA	8r	.	8aJ 8aa	.
=10	=10	=10	=10	=10
8D	8r	.	8dL	.
8r	8d 8f	.	16b-XL 16bb-X	.
.	.	.	16b-JJ 16bb-	.
8r	8B-X 8e	.	8a 8aa	.
8AA	8r	.	8r	.
=11	=11	=11	=11	=11
8D	8r	.	(8dL	.
8r	8d' 8f#X	.	8dd^J) 8ddd	.
8CL	4r	.	16r	.
.	.	.	16ALL	.
8D'J 8d	.	.	16B-X	.
.	.	.	16cJJ	.
==	==	==	==	==
*-	*-	*-	*-	*-
!!!CDT: 1890/12/08-1959/08/28
!!!CBL: Polička, Bohemia
!!!CDL: Liestal, Switzerland
!!!CNT: Czech
!!!AGN: Instrumental; Chamber
!!!MCN:
!!!MDT: 1933/02/03
!!!MGN:
!!!MLC: Prague, Czechia
!!!MPD: 1933
!!!MPN: Polák-Pelleg, F.; Rybár, P.
!!!ODT: 1931
!!!PDT: 1932
!!!excerpt-start-measure: 1
!!!excerpt-end-measure: 11
!!!excerpt-start-time: 0:00
!!!excerpt-end-time: 0:13
!!!EEV: 2020/01/17
!!!system-decoration: s1{(s2,s3)}
!!!ONB: Converted from MusicXML on 2020/01/17
